icons/virus_lab_research_test_tube_fill.svg

<svg width="48" height="48" viewBox="0 0 48 48" fill="none" xmlns="http://www.w3.org/2000/svg">
<path fill-rule="evenodd" clip-rule="evenodd" d="M14 4C13.4477 4 13 4.44772 13 5V8C13 8.55228 13.4477 9 14 9H15V11.2729C14.4174 11.4788 14 12.0344 14 12.6875V39C14 41.7614 16.2386 44 19 44C21.1445 44 22.9737 42.6499 23.684 40.7533C21.4357 38.9196 20 36.1275 20 33C20 29.7284 21.5711 26.8237 24 24.9993V12.6875C24 12.0344 23.5826 11.4788 23 11.2729V9H24C24.5523 9 25 8.55228 25 8V5C25 4.44772 24.5523 4 24 4H14ZM17 11.6875V9H21V11.6875C21 12.3406 21.4174 12.8962 22 13.1021V18H16V13.1021C16.5826 12.8962 17 12.3406 17 11.6875ZM32.7574 37.1716C32.2326 37.5192 31.6384 37.7704 31 37.9V39C31.5523 39 32 39.4477 32 40C32 40.5523 31.5523 41 31 41H29C28.4477 41 28 40.5523 28 40C28 39.4477 28.4477 39 29 39V37.9C28.3616 37.7704 27.7674 37.5192 27.2426 37.1716L26.4142 38.0001C26.8047 38.3906 26.8047 39.0238 26.4142 39.4143C26.0236 39.8048 25.3905 39.8048 25 39.4143L23.5857 38.0001C23.1952 37.6096 23.1952 36.9764 23.5857 36.5859C23.9763 36.1953 24.6094 36.1953 25 36.5859L25.8284 35.7574C25.4808 35.2326 25.2296 34.6384 25.1 34H24C24 34.5523 23.5523 35 23 35C22.4477 35 22 34.5523 22 34V32C22 31.4477 22.4477 31 23 31C23.5523 31 24 31.4477 24 32H25.1C25.2296 31.3616 25.4808 30.7674 25.8284 30.2426L25 29.4143C24.6095 29.8048 23.9764 29.8048 23.5858 29.4143C23.1953 29.0238 23.1953 28.3906 23.5858 28.0001L24.2836 27.3024C24.2866 27.2992 24.2898 27.296 24.2929 27.2929C24.296 27.2898 24.2992 27.2866 24.3024 27.2835L25 26.5859C25.3906 26.1953 26.0237 26.1953 26.4143 26.5859C26.8048 26.9764 26.8048 27.6096 26.4143 28.0001L27.2426 28.8284C27.7674 28.4808 28.3616 28.2296 29 28.1V27C28.4477 27 28 26.5523 28 26C28 25.4477 28.4477 25 29 25H31C31.5523 25 32 25.4477 32 26C32 26.5523 31.5523 27 31 27V28.1C31.6384 28.2296 32.2326 28.4808 32.7574 28.8284L33.5858 27.9999C33.1953 27.6094 33.1953 26.9762 33.5858 26.5857C33.9764 26.1952 34.6095 26.1952 35 26.5857L36.4143 27.9999C36.8048 28.3904 36.8048 29.0236 36.4143 29.4141C36.0237 29.8047 35.3906 29.8047 35 29.4141L34.1716 30.2426C34.5192 30.7674 34.7704 31.3616 34.9 32H36C36 31.4477 36.4477 31 37 31C37.5523 31 38 31.4477 38 32V34C38 34.5523 37.5523 35 37 35C36.4477 35 36 34.5523 36 34H34.9C34.7704 34.6384 34.5192 35.2326 34.1716 35.7574L35 36.5859C35.3906 36.1953 36.0237 36.1953 36.4143 36.5859C36.8048 36.9764 36.8048 37.6096 36.4143 38.0001L35 39.4143C34.6095 39.8048 33.9764 39.8048 33.5858 39.4143C33.1953 39.0238 33.1953 38.3906 33.5858 38.0001L32.7574 37.1716Z" fill="black"/>
</svg>

<svg
  xmlns="http://www.w3.org/2000/svg"
  width="24"
  height="24"
  viewBox="0 0 24 24"
  fill="none"
  stroke="currentColor"
  stroke-width="2"
  stroke-linecap="round"
  stroke-linejoin="round"
>
  <path
    fill-rule="evenodd"
    d="M14 4a1 1 0 0 0-1 1v3a1 1 0 0 0 1 1h1v2.273a1.5 1.5 0 0 0-1 1.415V39a5 5 0 0 0 9.684 1.753A9.98 9.98 0 0 1 20 33a9.99 9.99 0 0 1 4-8V12.687a1.5 1.5 0 0 0-1-1.415V9h1a1 1 0 0 0 1-1V5a1 1 0 0 0-1-1zm3 7.688V9h4v2.688a1.5 1.5 0 0 0 1 1.414V18h-6v-4.898a1.5 1.5 0 0 0 1-1.415m15.757 25.484A5 5 0 0 1 31 37.9V39a1 1 0 1 1 0 2h-2a1 1 0 1 1 0-2v-1.1a5 5 0 0 1-1.757-.728l-.829.828A1 1 0 0 1 25 39.414L23.586 38A1 1 0 0 1 25 36.586l.828-.829A5 5 0 0 1 25.1 34H24a1 1 0 1 1-2 0v-2a1 1 0 1 1 2 0h1.1c.13-.638.38-1.233.728-1.757L25 29.414A1 1 0 0 1 23.586 28l.698-.698.009-.01.01-.009.697-.697A1 1 0 1 1 26.414 28l.829.828A5 5 0 0 1 29 28.1V27a1 1 0 1 1 0-2h2a1 1 0 1 1 0 2v1.1c.638.13 1.233.38 1.757.728l.829-.828A1 1 0 0 1 35 26.586L36.414 28A1 1 0 0 1 35 29.414l-.828.829c.347.524.598 1.119.728 1.757H36a1 1 0 1 1 2 0v2a1 1 0 1 1-2 0h-1.1a5 5 0 0 1-.728 1.757l.828.829A1 1 0 1 1 36.414 38L35 39.414A1 1 0 0 1 33.586 38z"
    clip-rule="evenodd"
  />
</svg>
